!!!OTL: Wenzhou huagu
!!!ARE: Asia, China,ÿZhejiang, Wenzhou
!! III, 628
!!!SCT: C1621
!!!YEM: Copyright 1995, estate of Helmut Schaffrath.
**kern
*ICvox
*Ivox
*M2/4
*k[b-e-]
*B-:
{4cc
4g
=1
4g
4cc
=2
8g
8f
8f
8g
=3
2b-}
=4
{4cc
4g
=5
4g
4b-
=6
4cc
4g
=7
2f}
=8
{4dd
4cc
=9
4b-
4g
=10
4f
8f
8g
=11
2b-}
=12
{4cc
4g
=13
4b-
4cc
=14
4g
4gg
=15
2f}
==
!!!AGN: Wuge, Dengdiao
!!!AMT: simple duple
!!!AIN: vox
!!!EED: Helmut Schaffrath
!!!EEV: 1.0
*-
